assets/img/braze_icons/log-out-04.svg

<svg fill="none" height="24" viewBox="0 0 24 24" width="24" xmlns="http://www.w3.org/2000/svg"><g fill="#801ed7"><path d="m1 12c0-5.48694 4.29268-10 9.6667-10 1.7666 0 3.4238.49112 4.8482 1.34682.4735.2844.6267.89874.3423 1.37217s-.8987.62667-1.3721.34227c-1.1251-.67583-2.4279-1.06126-3.8184-1.06126-4.19898 0-7.6667 3.54581-7.6667 8 0 4.4542 3.46772 8 7.6667 8 1.3905 0 2.6933-.3854 3.8184-1.0613.4734-.2844 1.0877-.1311 1.3721.3423s.1312 1.0878-.3423 1.3722c-1.4244.8557-3.0816 1.3468-4.8482 1.3468-5.37402 0-9.6667-4.5131-9.6667-10z"/><path d="m17.2929 7.29289c.3905-.39052 1.0237-.39052 1.4142 0l4 4.00001c.3905.3905.3905 1.0237 0 1.4142l-4 4c-.3905.3905-1.0237.3905-1.4142 0s-.3905-1.0237 0-1.4142l2.2929-2.2929h-10.5858c-.55228 0-1-.4477-1-1s.44772-1 1-1h10.5858l-2.2929-2.29289c-.3905-.39053-.3905-1.02369 0-1.41422z"/></g></svg>

<svg width="24" height="24" viewBox="0 0 24 24" fill="none" xmlns="http://www.w3.org/2000/svg">
<path d="M1 12C1 6.51306 5.29268 2 10.6667 2C12.4333 2 14.0905 2.49112 15.5149 3.34682C15.9884 3.63122 16.1416 4.24556 15.8572 4.71899C15.5728 5.19242 14.9585 5.34566 14.4851 5.06126C13.36 4.38543 12.0572 4 10.6667 4C6.46772 4 3 7.54581 3 12C3 16.4542 6.46772 20 10.6667 20C12.0572 20 13.36 19.6146 14.4851 18.9387C14.9585 18.6543 15.5728 18.8076 15.8572 19.281C16.1416 19.7544 15.9884 20.3688 15.5149 20.6532C14.0905 21.5089 12.4333 22 10.6667 22C5.29268 22 1 17.4869 1 12Z" fill="#801ED7"/>
<path d="M17.2929 7.29289C17.6834 6.90237 18.3166 6.90237 18.7071 7.29289L22.7071 11.2929C23.0976 11.6834 23.0976 12.3166 22.7071 12.7071L18.7071 16.7071C18.3166 17.0976 17.6834 17.0976 17.2929 16.7071C16.9024 16.3166 16.9024 15.6834 17.2929 15.2929L19.5858 13H9C8.44772 13 8 12.5523 8 12C8 11.4477 8.44772 11 9 11H19.5858L17.2929 8.70711C16.9024 8.31658 16.9024 7.68342 17.2929 7.29289Z" fill="#801ED7"/>
</svg>
